src/basic/600/u2BC3-oct.svg

<svg width="18" height="24" viewBox="0 0 18 24" fill="none" xmlns="http://www.w3.org/2000/svg">
<path fill-rule="evenodd" clip-rule="evenodd" d="M5.27208,3.01471h0.2071h7.04162h0.2071l0.1465,0.14645l4.9792,4.97918l0.1464,0.14645v0.2071v7.04161v0.2071l-0.1464,0.1465l-4.9792,4.9792l-0.1465,0.1464h-0.2071h-7.04161h-0.20711l-0.14645,-0.1464l-4.97918,-4.9792l-0.14645,-0.1465v-0.2071v-7.04161v-0.2071l0.14645,-0.14645l4.97918,-4.97918zM5.68629,4.01471l-4.68629,4.68629v6.6274l4.68629,4.6863h6.62741l4.6863,-4.6863v-6.6274l-4.6863,-4.68629z" fill="black"/>
</svg>

<svg width="18" height="24" viewBox="0 0 18 24" fill="none" xmlns="http://www.w3.org/2000/svg">
<path fill-rule="evenodd" clip-rule="evenodd" d="M5.27208 3.01471H5.47918L12.5208 3.01471H12.7279L12.8744 3.16116L17.8536 8.14034L18 8.28679V8.49389V15.5355V15.7426L17.8536 15.8891L12.8744 20.8683L12.7279 21.0147H12.5208H5.47919H5.27208L5.12563 20.8683L0.146447 15.8891L1.19209e-07 15.7426V15.5355L0 8.49389V8.28679L0.146447 8.14034L5.12563 3.16116L5.27208 3.01471ZM5.68629 4.01471L1 8.701L1 15.3284L5.68629 20.0147H12.3137L17 15.3284V8.701L12.3137 4.01471L5.68629 4.01471Z" fill="black"/>
</svg>
